X:1
T:Title
%%score 1 { 2 | 3 }
L:1/8
Q:1/4=108
M:4/4
K:Ab
V:1 treble nm="Grand Piano, Treble Clef"
V:2 bass nm="Choir Pad, Ellingham, 77.77"
V:3 bass 
V:1
 [Ec]3 [CA] [Fd]2 [Ec]2 | [Ec]2 [DB]2 [CA]4 | [DB]3 [DF] [=DB]2 [DA]2 | [EG]2 [=DA]2 [EB]4 | %4
w: By~Nathaniel~Stedman~Godfrey~(1817\-1883) * * *||||
 [Ec]3 [CA] [Dd]2 [Ec]2 | [Fc]2 [GB]2 [Ee]4 | [Gd]2 [Ac]2 [FB]2 [=DA]2 | [EA]2 [EG]2 [EA]4- | %8
w: ||||
 [EA]4 z4 |] %9
w: |
V:2
 A,3 A, A,2 A,2 | A,2 G,2 A,4 | F,3 F, F,2 B,2 | B,2 B,2 B,4 | z2 z A, A,2 A,2 | A,2 B,2 A,4 | %6
 E2 E2 D2 A,2 | B,2 B,2 C4- | C4 z4 |] %9
V:3
 z8 | E,2 E,2 F,2 E,2 | D,3 D, B,,2 B,,2 | E,2 F,2 G,2 E,2 | A,3 _G, F,2 E,2 | =D,2 _D,2 C,4 | %6
 B,,2 A,,2 D,2 F,2 | E,2 E,2 A,,4- | A,,4 z4 |] %9

